X:54
%
% From O'Neill's Music of Ireland, No. 107
%
T:Fill the Cup
C:Traditional
L:1/8
M:2/4
Q:1/4=70
K:G treble
D | DEGA | B2 AG | cAAB | cAAB | DEGA | B2 AG | BGGA | BG G ||
d | edeg | d2 cB | cAAd | cAAd | edeg | d2 cA | BGGA | BG G ||


